qml/icons/navigation/off-ramp-slight-left-black.svg

<svg id="WORKING_ICONS" data-name="WORKING ICONS" xmlns="http://www.w3.org/2000/svg" width="20" height="20" viewBox="0 0 20 20">
  <title>direction</title>
  <path fill="#000000" d="M14.5029,2.2A0.29744,0.29744,0,0,1,14.8,2.49712V17.50288A0.29744,0.29744,0,0,1,14.5029,17.8H13.4971A0.29744,0.29744,0,0,1,13.2,17.50288V2.49712A0.29744,0.29744,0,0,1,13.4971,2.2h1.0058m0-.2H13.4971A0.49711,0.49711,0,0,0,13,2.49712V17.50288A0.49711,0.49711,0,0,0,13.4971,18h1.0058A0.49711,0.49711,0,0,0,15,17.50288V2.49712A0.49711,0.49711,0,0,0,14.5029,2h0ZM12.64606,8.24854L10.1886,6.17468a0.3576,0.3576,0,0,1,.07019-0.6571L13.2077,4.16742a0.38658,0.38658,0,0,0-.20294-0.71777L5,3l1.58044,7.86a0.38663,0.38663,0,0,0,.73938.09912L8.238,7.84851a0.35758,0.35758,0,0,1,.6405-0.16266l2.44818,2.06561a5.21819,5.21819,0,0,1,1.665,4.144l-0.0047,3.60767A0.49614,0.49614,0,0,0,13.48322,18h1.00653a0.49621,0.49621,0,0,0,.49615-0.49622V14.043A7.25157,7.25157,0,0,0,12.64606,8.24854Z"/>
</svg>

<svg data-name="WORKING ICONS" xmlns="http://www.w3.org/2000/svg" width="20" height="20"><path d="M14.503 2.2a.297.297 0 0 1 .297.297v15.006a.297.297 0 0 1-.297.297h-1.006a.297.297 0 0 1-.297-.297V2.497a.297.297 0 0 1 .297-.297h1.006m0-.2h-1.006a.497.497 0 0 0-.497.497v15.006a.497.497 0 0 0 .497.497h1.006a.497.497 0 0 0 .497-.497V2.497A.497.497 0 0 0 14.503 2Zm-1.857 6.249L10.19 6.175a.358.358 0 0 1 .07-.657l2.949-1.35a.387.387 0 0 0-.203-.718L5 3l1.58 7.86a.387.387 0 0 0 .74.1l.918-3.111a.358.358 0 0 1 .64-.163l2.449 2.065a5.218 5.218 0 0 1 1.665 4.144l-.005 3.608a.496.496 0 0 0 .496.497h1.007a.496.496 0 0 0 .496-.496v-3.461a7.252 7.252 0 0 0-2.34-5.794Z"/></svg>
